public/svg/close.svg

<svg xmlns="http://www.w3.org/2000/svg" width="32" height="33" fill="none" viewBox="0 0 32 33">
  <path fill="#101828" d="M16 3.167C8.652 3.167 2.665 9.154 2.665 16.5c0 7.347 5.987 13.334 13.333 13.334 7.347 0 13.334-5.987 13.334-13.334 0-7.346-5.987-13.333-13.334-13.333Zm4.48 16.4a1.006 1.006 0 0 1 0 1.413c-.2.2-.454.294-.707.294a.99.99 0 0 1-.707-.294l-3.067-3.066-3.066 3.066a.99.99 0 0 1-.707.294.989.989 0 0 1-.707-.294 1.006 1.006 0 0 1 0-1.413l3.067-3.067-3.067-3.066a1.006 1.006 0 0 1 0-1.414 1.006 1.006 0 0 1 1.414 0l3.066 3.067 3.067-3.067a1.006 1.006 0 0 1 1.413 0 1.006 1.006 0 0 1 0 1.414L17.413 16.5l3.066 3.067Z"/>
</svg>

<?xml version="1.0" encoding="utf-8"?>
<svg width="32" height="33" fill="none" viewBox="0 0 32 33" style="filter: none;" xmlns="http://www.w3.org/2000/svg">
  <defs/>
  <path d="M 16 3.167 C 8.652 3.167 2.665 9.154 2.665 16.5 C 2.665 23.847 8.652 29.834 15.998 29.834 C 23.345 29.834 29.332 23.847 29.332 16.5 C 29.332 9.154 23.345 3.167 15.998 3.167 L 16 3.167 Z M 20.48 19.567 C 20.866 19.959 20.866 20.588 20.48 20.98 C 20.28 21.18 20.026 21.274 19.773 21.274 C 19.507 21.275 19.253 21.169 19.066 20.98 L 15.999 17.914 L 12.933 20.98 C 12.746 21.169 12.492 21.275 12.226 21.274 C 11.96 21.275 11.706 21.169 11.519 20.98 C 11.133 20.588 11.133 19.959 11.519 19.567 L 14.586 16.5 L 11.519 13.434 C 11.132 13.042 11.132 12.412 11.519 12.02 C 11.911 11.633 12.541 11.633 12.933 12.02 L 15.999 15.087 L 19.066 12.02 C 19.458 11.634 20.087 11.634 20.479 12.02 C 20.866 12.412 20.866 13.042 20.479 13.434 L 17.413 16.5 L 20.479 19.567 L 20.48 19.567 Z" style="paint-order: fill; fill-rule: evenodd; fill: rgb(176, 169, 169);"/>
</svg>
